X: 1
T: the Inverness Rant
O: Logan's
R: reel
Z: 2016 John Chambers <jc:trillian.mit.edu>
S: handwritten MS from Barbara McOwen 2007
M: C|
L: 1/8
K: D
c "A"|\
"D"d2Ad "G"BdAB | "D"d2fd "A7"edBc |\
"D"d2Ad "G"BdAg | "A7"faeg "D"fdd :|
A "B1"|\
"D"d2fd adfd | "A7"c/B/AeA fAeA |\
"D"d2fd "Bm"adfd | "A7"e2eg "D"fdd ||
A "B2"|\
"D"d2fd adfd | "A7"c/B/AeA fAeA |\
"D"d2e/f/g "Bm"afge | "A7"faeg "D"fdd |]
